src/images/icons/icon-about-3.svg

<svg width="49" height="50" viewBox="0 0 49 50" fill="none" xmlns="http://www.w3.org/2000/svg">
<path d="M23.7 42.5C35.6 42.5 45.2 33 45.2 21.3C45.2999 9.5 35.6 0 23.7 0C11.8 0 2.19995 9.5 2.19995 21.3C2.19995 33 11.8 42.5 23.7 42.5Z" fill="#B3B3B3"/>
<path fill-rule="evenodd" clip-rule="evenodd" d="M29.3 27.5L30.2 26.6L30.5 26.9V27.8L29.6 28.7H29.3V27.5ZM46.5 33.4L48.1 31.8V31.5L48.4 31.2L49 31.5L46.8 33.7L46.5 33.4ZM44.3 32.8V32.2H44.9V32.5L44.6 32.8H44.3ZM40.3 30.9V28.4L40.9 28.1H41.5L42.4 26.9L42.7 27.2L43.6 26.3L43.9 26.9V27.2L44.2 27.5H44.5V26.9L44.8 26.6L45.1 26.9V28.1L46 29V30.9L45.1 31.8H43.5V30.6L43.2 30.3H42.3L41.7 30.9H40.3ZM43.7 25H45.6L46.2 25.6V26.2H45.6L45.3 25.9H44.7L43.7 25ZM41.5 24.7L41.8 25V25.6H41.2V24.7H41.5ZM39.6 24.4H39.9L40.8 23.5L41.1 24.1V24.7L40.8 25.3H39.6V24.4ZM37.5 24.1L37.8 23.8L39.4 25V25.3H39.7V25.6H41.3L41.6 25.9H39.7V25.6H39L37.5 24.1ZM43.1 15.9L43.7 15.6L44.3 16.2L43.7 16.8L44 17.1V18L43.1 18.9H42.5V18.3L43.1 17.7H43.7V17.1L43.1 16.5V15.9ZM21.2 17.2H22.1V16.9L21.8 16.3L22.1 16H22.4L23 15.7L23.3 15.4V14.5H23.6V14.8V15L23.9 15.3H24.2L24.5 15H25.4V14.4L25.7 13.8H25.1V12.9L25 13.1V14L24.7 14.3V14.6H24.4L23.8 14H23.2V13.1L25.4 10.9H27L27.3 11.2H27.9V12.1L29.5 10.5H30.7V9.1H31.9L34 7.2H35.2V8.1L35.8 7.5H37.4L38 8.1L39 7.2H41.2L41.5 7.5H42.7L43.3 6.9H46.4V8.8L45.8 9.4V11H44.9V11.9L45.5 12.2V13.8L44 12.5V11H43.7V11.6H42.5L41.9 12.5V13.4H42.8V16.2L41.9 17.1L42.5 18L41.9 18.3L41 17.4L40.4 17.7L42 19.3V20L41.1 21.2H39.9L39 21.9L39.9 22.5L39.3 23.1L38.7 22.8L38.1 23.1L38.7 23.7V24L39 24.3H38.7L38.1 23.7V23.4V22.2L37.8 21.9H37.5V21.6L36.9 21.3H36.3L35.4 22.2V23.1L34.8 23.4L34.5 23.1L34 22.2V21H33.4L32.8 20.4H31.6L31.2 20L30.9 20.3L30.3 20V19.7H30V20L30.9 20.9L31.2 20.6L31.8 20.9L30.2 22.5H29.3V21.9L28.7 21.6V21L28.1 20.4H27.8V21L28.7 21.9V22.2L29.3 23.1H30.2V23.7L28.6 25.3V27.2L28 27.8V28.7L26.5 30H25.6L24.4 29.1V25.7L23.7 25V24.1L23.1 23.8L22.8 24.1H21.2L20 22.5V20.9L21.9 18.7H24.4L24.7 19H25L25.3 19.3L25.6 19H27.5L27.8 18.7V18.4H26.9L26.6 18.1V17.8H26.3L26 18.1L26.3 18.4H26H25.7V17.8L24.8 16.9H24.5V17.2L25.4 18.1L24.8 18.7L24.5 18.4L24.8 18.1L23.9 17.2L23.6 17.5L23.3 17.2L22.7 17.8V18.1L22.4 18.7H21.8L21.5 18.1V17.2H21.2ZM21.8 14.4V14.1L22.1 14.4V14.7L22.7 15.3V15.6L22.4 15.9H21.8V15.6V15.3V15V14.4ZM21.2 15.9V15.3V15H21.8V15.6L21.5 15.9H21.2ZM23.4 7.2H25.6V8.1L25 8.8H24.4L23.5 7.9V7.2H23.4ZM19.4 12.2H20L20.3 11.6L20.9 12.2L20.3 12.8H19.4V12.2ZM0 10.3L0.6 10V8.8L1.2 8.2H2.1L3 7.3H3.6L5.5 9.2H7.1L8.7 10.4H9.6L10.2 9.8H11.1L11.7 10.4V11.3L11.1 11.9H10.5L9.6 12.8V13.4L10.8 14.6H11.7L12 14.3V12.7H12.9L13.8 13.3V14.2L14.7 15.4L14.4 15.7L14 15.6H13.1V15.9L13.4 16.2L12.8 16.8H12.5L11.3 18V18.6L10.4 19.2V20.4H10V20.1L9.7 19.5H8.1L7.5 20.1V21L7.8 21.3H8.4L8.7 21H9V21.9H9.6V22.5L9.9 22.8H10.2L10.5 23.1L11.1 22.5H12.7L13.3 23.1H14.2L14.5 23.7V24.3H15.1L15.4 24.6H16.3L16.9 24.9V25.5L16.3 26.1V27.3L15.1 28.2V28.8L14.2 30H14V30.3L13.1 30.9V31.8L12.8 32.4V33.3L13.1 33.6V33.9H12.2L11.9 33.6V30.8L11.6 30.5V27.1L11 26.5V25.9L9.8 25V24.1L10.4 23.5V23.2H10L8.8 22H8.1L7.8 21.7H7.2L6 20.5H5.6L5 20V19.4L3.8 18.5V16.3L4.4 15.7V12.9L3.2 11.7H1.9L1 12.6L0 11.9V10.3ZM15 8.5V7.5L16.5 6H17.7L18.3 5.7H19.5L21.1 6.9L19.5 8.5V11.6H18.3L17.4 12.2V12.8L16.5 14L15.6 13.1V11.9L15.9 11.6V8.5H15ZM11.5 9.1H12.7L14.3 10.3V11.5L13.1 12.4L12.5 11.5H13.1V10.3H12.2L11.6 9.7V9.1H11.5ZM10.3 8.5H11.2V9.7H10.6L10.3 9.1V8.5ZM10.9 7.5L11.8 8.7H12.7L13.3 8.1H12.1L11.2 7.2L10.9 7.5ZM11.9 5.6L12.5 6.2L11.9 6.8L11.6 6.2L11.9 5.6ZM8.7 6.6L9.7 6H10.9V7.6H9.7L8.7 6.6ZM8.1 7.5H9V8.4H10V9.6L9.7 10H8.7L8.1 9.4V9.1L7.8 8.8V8.1L8.1 7.5ZM12.5 7.5V6L13.1 5H15.9L16.5 5.6L15.9 6.5H15L13.1 8.1L12.5 7.5Z" fill="white"/>
<path d="M21.9543 48.6121L26.3495 42.9446C25.7712 43.1759 25.0772 43.2916 24.3832 43.2916C23.1109 43.2916 21.4917 42.7133 20.335 41.6723C19.4097 40.747 18.6001 39.2434 18.6001 37.2771C18.6001 35.7735 19.0627 34.1543 20.335 32.882C21.9543 31.147 23.6892 30.8 25.5398 30.8C27.5061 30.8 29.241 31.147 30.7446 32.6506C31.7856 33.6916 32.4796 35.0796 32.4796 37.1615C32.4796 39.3591 31.4386 41.2097 30.1663 42.8289L24.8459 50L21.9543 48.6121ZM23.2266 34.5012C22.7639 34.9639 22.1856 35.6579 22.1856 36.9302C22.1856 38.0868 22.5326 38.8964 23.2266 39.4747C23.9206 40.1687 24.7302 40.4 25.5398 40.4C26.5808 40.4 27.2748 40.053 27.9687 39.3591C28.6627 38.6651 29.0097 37.8555 29.0097 36.9302C29.0097 35.7735 28.5471 34.9639 27.9687 34.5012C27.5061 34.0386 26.6965 33.5759 25.6555 33.5759C24.3832 33.5759 23.6892 34.0386 23.2266 34.5012Z" fill="#FCFCFC"/>
<path d="M39.1879 43.4072C39.5349 43.0603 41.6168 40.6314 42.3108 39.5904C42.7734 38.8964 43.3517 37.7398 43.3517 36.6988C43.3517 35.0796 42.1951 33.9229 40.5758 33.9229C38.7252 33.9229 37.6843 35.4265 37.6843 36.9302H34.0988C34.2144 33.229 36.8747 30.8 40.5758 30.8C44.8554 30.8 47.0529 33.6916 47.0529 36.5832C47.0529 39.3591 45.2023 41.441 43.6987 42.9446L40.5758 46.4145H47.1686V49.5373H33.8674L39.1879 43.4072Z" fill="#FCFCFC"/>
</svg>

<svg xmlns="http://www.w3.org/2000/svg" width="49" height="50" fill="none" viewBox="0 0 49 50">
	<path fill="#B3B3B3" d="M23.7 42.5c11.9 0 21.5-9.5 21.5-21.2C45.3 9.5 35.6 0 23.7 0S2.2 9.5 2.2 21.3c0 11.7 9.6 21.2 21.5 21.2z"/>
	<path fill="#fff" fill-rule="evenodd" d="m29.3 27.5.9-.9.3.3v.9l-.9.9h-.3v-1.2zm17.2 5.9 1.6-1.6v-.3l.3-.3.6.3-2.2 2.2-.3-.3zm-2.2-.6v-.6h.6v.3l-.3.3h-.3zm-4-1.9v-2.5l.6-.3h.6l.9-1.2.3.3.9-.9.3.6v.3l.3.3h.3v-.6l.3-.3.3.3v1.2l.9.9v1.9l-.9.9h-1.6v-1.2l-.3-.3h-.9l-.6.6h-1.4zm3.4-5.9h1.9l.6.6v.6h-.6l-.3-.3h-.6l-1-.9zm-2.2-.3.3.3v.6h-.6v-.9h.3zm-1.9-.3h.3l.9-.9.3.6v.6l-.3.6h-1.2v-.9zm-2.1-.3.3-.3 1.6 1.2v.3h.3v.3h1.6l.3.3h-1.9v-.3H39l-1.5-1.5zm5.6-8.2.6-.3.6.6-.6.6.3.3v.9l-.9.9h-.6v-.6l.6-.6h.6v-.6l-.6-.6v-.6zm-21.9 1.3h.9v-.3l-.3-.6.3-.3h.3l.6-.3.3-.3v-.9h.3v.5l.3.3h.3l.3-.3h.9v-.6l.3-.6h-.6v-.9l-.1.2v.9l-.3.3v.3h-.3l-.6-.6h-.6v-.9l2.2-2.2H27l.3.3h.6v.9l1.6-1.6h1.2V9.1h1.2L34 7.2h1.2v.9l.6-.6h1.6l.6.6 1-.9h2.2l.3.3h1.2l.6-.6h3.1v1.9l-.6.6V11h-.9v.9l.6.3v1.6L44 12.5V11h-.3v.6h-1.2l-.6.9v.9h.9v2.8l-.9.9.6.9-.6.3-.9-.9-.6.3 1.6 1.6v.7l-.9 1.2h-1.2l-.9.7.9.6-.6.6-.6-.3-.6.3.6.6v.3l.3.3h-.3l-.6-.6v-1.5l-.3-.3h-.3v-.3l-.6-.3h-.6l-.9.9v.9l-.6.3-.3-.3-.5-.9V21h-.6l-.6-.6h-1.2l-.4-.4-.3.3-.6-.3v-.3H30v.3l.9.9.3-.3.6.3-1.6 1.6h-.9v-.6l-.6-.3V21l-.6-.6h-.3v.6l.9.9v.3l.6.9h.9v.6l-1.6 1.6v1.9l-.6.6v.9L26.5 30h-.9l-1.2-.9v-3.4l-.7-.7v-.9l-.6-.3-.3.3h-1.6L20 22.5v-1.6l1.9-2.2h2.5l.3.3h.3l.3.3.3-.3h1.9l.3-.3v-.3h-.9l-.3-.3v-.3h-.3l-.3.3.3.3h-.6v-.6l-.9-.9h-.3v.3l.9.9-.6.6-.3-.3.3-.3-.9-.9-.3.3-.3-.3-.6.6v.3l-.3.6h-.6l-.3-.6v-.9h-.3zm.6-2.8v-.3l.3.3v.3l.6.6v.3l-.3.3h-.6v-1.5zm-.6 1.5V15h.6v.6l-.3.3h-.3zm2.2-8.7h2.2v.9l-.6.7h-.6l-.9-.9v-.7h-.1zm-4 5h.6l.3-.6.6.6-.6.6h-.9v-.6zM0 10.3l.6-.3V8.8l.6-.6h.9l.9-.9h.6l1.9 1.9h1.6l1.6 1.2h.9l.6-.6h.9l.6.6v.9l-.6.6h-.6l-.9.9v.6l1.2 1.2h.9l.3-.3v-1.6h.9l.9.6v.9l.9 1.2-.3.3-.4-.1h-.9v.3l.3.3-.6.6h-.3L11.3 18v.6l-.9.6v1.2H10v-.3l-.3-.6H8.1l-.6.6v.9l.3.3h.6l.3-.3H9v.9h.6v.6l.3.3h.3l.3.3.6-.6h1.6l.6.6h.9l.3.6v.6h.6l.3.3h.9l.6.3v.6l-.6.6v1.2l-1.2.9v.6l-.9 1.2H14v.3l-.9.6v.9l-.3.6v.9l.3.3v.3h-.9l-.3-.3v-2.8l-.3-.3v-3.4l-.6-.6v-.6L9.8 25v-.9l.6-.6v-.3H10L8.8 22h-.7l-.3-.3h-.6L6 20.5h-.4L5 20v-.6l-1.2-.9v-2.2l.6-.6v-2.8l-1.2-1.2H1.9l-.9.9-1-.7v-1.6zm15-1.8v-1L16.5 6h1.2l.6-.3h1.2l1.6 1.2-1.6 1.6v3.1h-1.2l-.9.6v.6l-.9 1.2-.9-.9v-1.2l.3-.3V8.5H15zm-3.5.6h1.2l1.6 1.2v1.2l-1.2.9-.6-.9h.6v-1.2h-.9l-.6-.6v-.6h-.1zm-1.2-.6h.9v1.2h-.6l-.3-.6v-.6zm.6-1 .9 1.2h.9l.6-.6h-1.2l-.9-.9-.3.3zm1-1.9.6.6-.6.6-.3-.6.3-.6zm-3.2 1 1-.6h1.2v1.6H9.7l-1-1zm-.6.9H9v.9h1v1.2l-.3.4h-1l-.6-.6v-.3l-.3-.3v-.7l.3-.6zm4.4 0V6l.6-1h2.8l.6.6-.6.9H15l-1.9 1.6-.6-.6z" clip-rule="evenodd"/>
	<path fill="#FCFCFC" d="m21.954 48.612 4.395-5.667c-.578.23-1.272.347-1.966.347-1.272 0-2.891-.579-4.048-1.62-.925-.925-1.735-2.429-1.735-4.395 0-1.504.463-3.123 1.735-4.395 1.62-1.735 3.354-2.082 5.205-2.082 1.966 0 3.701.347 5.205 1.85 1.04 1.042 1.735 2.43 1.735 4.511 0 2.198-1.041 4.049-2.314 5.668L24.846 50l-2.892-1.388zm1.273-14.11c-.463.462-1.041 1.156-1.041 2.428 0 1.157.347 1.966 1.04 2.545.695.694 1.504.925 2.314.925 1.04 0 1.735-.347 2.429-1.04.694-.695 1.04-1.505 1.04-2.43 0-1.157-.462-1.966-1.04-2.429a3.296 3.296 0 0 0-2.314-.925c-1.272 0-1.966.463-2.428.925zM39.188 43.407c.347-.347 2.429-2.776 3.123-3.817.462-.694 1.04-1.85 1.04-2.891 0-1.62-1.156-2.776-2.775-2.776-1.85 0-2.892 1.503-2.892 3.007H34.1c.115-3.701 2.776-6.13 6.477-6.13 4.28 0 6.477 2.892 6.477 5.783 0 2.776-1.85 4.858-3.354 6.362l-3.123 3.47h6.593v3.122H33.867l5.32-6.13z"/>
</svg>
